templates/main/source/images/sroki-dostavki.svg

<?xml version="1.0" encoding="utf-8"?>
<svg width="55px" height="50px" viewBox="0 0 55 50" version="1.1" xmlns:xlink="http://www.w3.org/1999/xlink" xmlns="http://www.w3.org/2000/svg">
  <desc>Created with Lunacy</desc>
  <g id="sroki-dostavki">
    <path d="M22.6902 25.84L4.77019 25.84C2.1176 25.818 -0.016444 23.6526 0.000192102 21L0.000192102 4.84C-0.016444 2.18737 2.1176 0.0220076 4.77019 0L12.0602 0L12.0602 3.65L15.4402 3.65L15.4402 0L22.6802 0C23.9559 0.00793173 25.1762 0.522321 26.0726 1.43C26.969 2.33768 27.4682 3.5643 27.4602 4.84L27.4602 21C27.4768 23.6526 25.3428 25.818 22.6902 25.84ZM9.41019 6.36L6.00019 10.43L8.47019 10.43L8.47019 15.72L10.3402 15.72L10.3402 10.43L12.7702 10.43L9.41019 6.36ZM14.6902 10.43L18.0502 6.36L21.4302 10.43L19.0002 10.43L19.0002 15.72L17.1202 15.72L17.1202 10.43L14.6902 10.43ZM20.4002 20.69L7.00019 20.69L7.00019 18.98L20.4002 18.98L20.4002 20.69Z" transform="translate(0 24.160156)" id="Shape" fill="#8C0014" fill-rule="evenodd" stroke="none" />
    <path d="M0.00501834 14.1216L0.00501834 2.45157C-0.0515223 1.59549 0.373117 0.779104 1.10651 0.333902C1.83991 -0.111301 2.76013 -0.111301 3.49352 0.333902C4.22692 0.779104 4.65156 1.59549 4.59502 2.45157L4.59502 12.3316L10.385 13.9116C11.6164 14.2613 12.3382 15.5356 12.005 16.7716C11.7423 17.7845 10.8315 18.4943 9.78502 18.5016C9.58212 18.5055 9.3798 18.4785 9.18502 18.4216L1.72502 16.4216C0.691167 16.1414 -0.0184801 15.1925 0.00501834 14.1216L0.00501834 14.1216Z" transform="translate(28.615234 9.038086)" id="Path" fill="#8C0014" stroke="none" />
    <path d="M22.34 45.45C21.79 45.45 21.25 45.45 20.72 45.39L20.72 40.63C21.24 40.63 21.72 40.71 22.3 40.71C32.1726 40.6384 40.121 32.5827 40.06 22.71C40.2561 12.9097 32.4703 4.80606 22.67 4.61C12.8697 4.41394 4.76606 12.1997 4.57 22L0 22C0.280592 9.83571 10.1728 0.094018 22.34 0C28.3207 0.0449172 34.0386 2.4639 38.2357 6.72476C42.4328 10.9856 44.7653 16.7393 44.72 22.72C44.7679 28.7024 42.4366 34.4587 38.2392 38.7217C34.0418 42.9847 28.3224 45.4051 22.34 45.45Z" transform="translate(9.280273 0)" id="Path" fill="#A6A6A6" stroke="none" />
  </g>
</svg>

<svg width="55" height="50" viewBox="0 0 55 50" xmlns:xlink="http://www.w3.org/1999/xlink" xmlns="http://www.w3.org/2000/svg"><g id="sroki-dostavki" stroke="none"><path d="M22.69 25.84H4.77A4.81 4.81 0 010 21V4.84A4.81 4.81 0 014.77 0h7.29v3.65h3.38V0h7.24a4.81 4.81 0 014.78 4.84V21a4.81 4.81 0 01-4.77 4.84zM9.41 6.36L6 10.43h2.47v5.29h1.87v-5.29h2.43L9.41 6.36zm5.28 4.07l3.36-4.07 3.38 4.07H19v5.29h-1.88v-5.29h-2.43zm5.71 10.26H7v-1.71h13.4v1.71z" transform="translate(0 24.16)" id="Shape" fill="#8C0014" fill-rule="evenodd"/><path d="M.005 14.122V2.452a2.3 2.3 0 114.59 0v9.88l5.79 1.58a2.34 2.34 0 011.62 2.86 2.31 2.31 0 01-2.22 1.73 2.003 2.003 0 01-.6-.08l-7.46-2a2.33 2.33 0 01-1.72-2.3z" transform="translate(28.615 9.038)" id="Path" fill="#8C0014"/><path d="M22.34 45.45c-.55 0-1.09 0-1.62-.06v-4.76c.52 0 1 .08 1.58.08 9.873-.072 17.821-8.127 17.76-18 .196-9.8-7.59-17.904-17.39-18.1C12.87 4.414 4.766 12.2 4.57 22H0C.28 9.836 10.173.094 22.34 0a22.55 22.55 0 0122.38 22.72 22.55 22.55 0 01-22.38 22.73z" transform="translate(9.28)" id="Path" fill="#A6A6A6"/></g></svg>
